images/icons/client-4.svg

<svg viewBox="0 0 106 60" fill="none" xmlns="http://www.w3.org/2000/svg">
<path d="M24.1462 21.1028H24.1433C21.7453 21.1028 19.8013 22.8304 19.8013 24.9615V24.964C19.8013 27.0951 21.7453 28.8227 24.1433 28.8227H24.1462C26.5442 28.8227 28.4882 27.0951 28.4882 24.964V24.9615C28.4882 22.8304 26.5442 21.1028 24.1462 21.1028Z" fill="#2196F3"/>
<path d="M56.195 19.8693C56.1882 16.9093 54.8623 14.0722 52.5074 11.979C50.1525 9.88568 46.9604 8.70667 43.6297 8.69995V8.69995C40.298 8.70533 37.1045 9.88374 34.7484 11.9772C32.3922 14.0706 31.0655 16.9084 31.0587 19.8693V36.1921C31.0587 36.1921 56.1922 33.7044 56.195 19.8718V19.8693Z" fill="#2196F3"/>
<path d="M11 41.5495C11.006 43.6091 11.9291 45.5828 13.5676 47.0394C15.2061 48.496 17.4267 49.317 19.7442 49.3231C22.0612 49.317 24.2814 48.4963 25.9197 47.0403C27.5581 45.5843 28.4816 43.6112 28.4884 41.552V30.1943C28.4884 30.1943 11 31.9266 11 41.5495ZM19.7442 43.5844C19.2913 43.5844 18.8486 43.4651 18.472 43.2415C18.0955 43.0179 17.802 42.7001 17.6287 42.3282C17.4554 41.9564 17.41 41.5472 17.4984 41.1525C17.5867 40.7577 17.8048 40.3951 18.125 40.1105C18.4453 39.8259 18.8533 39.6321 19.2975 39.5536C19.7416 39.4751 20.202 39.5154 20.6205 39.6694C21.0389 39.8234 21.3965 40.0843 21.6481 40.4189C21.8997 40.7535 22.034 41.147 22.034 41.5495C22.0351 41.8173 21.9767 42.0828 21.8622 42.3306C21.7476 42.5783 21.5791 42.8036 21.3664 42.9933C21.1536 43.1831 20.9008 43.3337 20.6224 43.4364C20.3441 43.5392 20.0456 43.5921 19.7442 43.5921V43.5844Z" fill="#2196F3"/>
<path d="M37.4177 42.4637H35.7302V44.2069H34.8513V39.9413H37.6286V40.6532H35.7302V41.7548H37.4177V42.4637ZM41.6423 42.1708C41.6423 42.5907 41.5681 42.9589 41.4196 43.2753C41.2712 43.5917 41.0583 43.8358 40.7809 44.0077C40.5056 44.1796 40.1891 44.2655 39.8317 44.2655C39.4782 44.2655 39.1628 44.1805 38.8854 44.0106C38.6081 43.8407 38.3932 43.5985 38.2409 43.2841C38.0886 42.9677 38.0114 42.6044 38.0095 42.1942V41.9833C38.0095 41.5634 38.0847 41.1942 38.235 40.8759C38.3874 40.5555 38.6013 40.3104 38.8766 40.1405C39.154 39.9686 39.4704 39.8827 39.8259 39.8827C40.1813 39.8827 40.4968 39.9686 40.7722 40.1405C41.0495 40.3104 41.2634 40.5555 41.4138 40.8759C41.5661 41.1942 41.6423 41.5624 41.6423 41.9803V42.1708ZM40.7516 41.9774C40.7516 41.5302 40.6716 41.1903 40.5114 40.9579C40.3513 40.7255 40.1227 40.6093 39.8259 40.6093C39.5309 40.6093 39.3034 40.7245 39.1432 40.955C38.9831 41.1835 38.902 41.5194 38.9001 41.9628V42.1708C38.9001 42.6063 38.9802 42.9442 39.1403 43.1844C39.3005 43.4247 39.5309 43.5448 39.8317 43.5448C40.1266 43.5448 40.3532 43.4296 40.5114 43.1991C40.6696 42.9667 40.7497 42.6288 40.7516 42.1854V41.9774ZM44.4929 43.0878C44.4929 42.9218 44.4343 42.7948 44.3171 42.7069C44.1999 42.6171 43.989 42.5233 43.6843 42.4257C43.3796 42.326 43.1384 42.2284 42.9606 42.1327C42.4763 41.871 42.2341 41.5184 42.2341 41.0751C42.2341 40.8446 42.2985 40.6395 42.4274 40.4598C42.5583 40.2782 42.7448 40.1366 42.987 40.035C43.2311 39.9335 43.5046 39.8827 43.8073 39.8827C44.112 39.8827 44.3835 39.9384 44.6218 40.0497C44.86 40.1591 45.0446 40.3143 45.1755 40.5155C45.3083 40.7167 45.3747 40.9452 45.3747 41.201H44.4958C44.4958 41.0057 44.4343 40.8544 44.3112 40.7469C44.1882 40.6376 44.0153 40.5829 43.7927 40.5829C43.5778 40.5829 43.4108 40.6288 43.2917 40.7206C43.1725 40.8104 43.113 40.9296 43.113 41.078C43.113 41.2167 43.1823 41.3329 43.321 41.4266C43.4616 41.5204 43.6677 41.6083 43.9391 41.6903C44.4391 41.8407 44.8034 42.0272 45.0319 42.2499C45.2604 42.4725 45.3747 42.7499 45.3747 43.0819C45.3747 43.451 45.235 43.7411 44.9557 43.952C44.6765 44.161 44.3005 44.2655 43.8278 44.2655C43.4997 44.2655 43.2009 44.2059 42.9313 44.0868C42.6618 43.9657 42.4557 43.8007 42.3132 43.5917C42.1725 43.3827 42.1022 43.1405 42.1022 42.8651H42.9841C42.9841 43.3358 43.2653 43.5712 43.8278 43.5712C44.0368 43.5712 44.1999 43.5292 44.3171 43.4452C44.4343 43.3593 44.4929 43.2401 44.4929 43.0878ZM49.1833 40.6532H47.8766V44.2069H46.9977V40.6532H45.7087V39.9413H49.1833V40.6532ZM52.2536 42.3583H50.5661V43.5009H52.5466V44.2069H49.6872V39.9413H52.5407V40.6532H50.5661V41.6698H52.2536V42.3583ZM54.6413 42.6454H53.9411V44.2069H53.0622V39.9413H54.6472C55.1511 39.9413 55.5397 40.0536 55.8132 40.2782C56.0866 40.5028 56.2233 40.8202 56.2233 41.2303C56.2233 41.5214 56.1599 41.7645 56.0329 41.9598C55.9079 42.1532 55.7175 42.3075 55.4616 42.4227L56.3845 44.1659V44.2069H55.4411L54.6413 42.6454ZM53.9411 41.9335H54.6501C54.8708 41.9335 55.0417 41.8778 55.1628 41.7665C55.2839 41.6532 55.3444 41.4979 55.3444 41.3007C55.3444 41.0995 55.2868 40.9413 55.1716 40.826C55.0583 40.7108 54.8835 40.6532 54.6472 40.6532H53.9411V41.9335ZM59.2673 42.704V44.2069H58.3884V39.9413H60.0524C60.3727 39.9413 60.654 39.9999 60.8962 40.1171C61.1403 40.2343 61.3278 40.4012 61.4587 40.618C61.5895 40.8329 61.655 41.078 61.655 41.3534C61.655 41.7714 61.5114 42.1014 61.2243 42.3436C60.9391 42.5839 60.5436 42.704 60.0378 42.704H59.2673ZM59.2673 41.9921H60.0524C60.2849 41.9921 60.4616 41.9374 60.5827 41.828C60.7057 41.7186 60.7673 41.5624 60.7673 41.3593C60.7673 41.1503 60.7057 40.9813 60.5827 40.8524C60.4597 40.7235 60.2897 40.6571 60.0729 40.6532H59.2673V41.9921ZM64.8278 42.3583H63.1403V43.5009H65.1208V44.2069H62.2614V39.9413H65.1149V40.6532H63.1403V41.6698H64.8278V42.3583ZM68.9059 40.6532H67.5993V44.2069H66.7204V40.6532H65.4313V39.9413H68.9059V40.6532ZM71.9763 42.3583H70.2888V43.5009H72.2692V44.2069H69.4099V39.9413H72.2634V40.6532H70.2888V41.6698H71.9763V42.3583ZM74.364 42.6454H73.6638V44.2069H72.7849V39.9413H74.3698C74.8737 39.9413 75.2624 40.0536 75.5358 40.2782C75.8093 40.5028 75.946 40.8202 75.946 41.2303C75.946 41.5214 75.8825 41.7645 75.7556 41.9598C75.6306 42.1532 75.4401 42.3075 75.1843 42.4227L76.1071 44.1659V44.2069H75.1638L74.364 42.6454ZM73.6638 41.9335H74.3727C74.5934 41.9335 74.7643 41.8778 74.8854 41.7665C75.0065 41.6532 75.0671 41.4979 75.0671 41.3007C75.0671 41.0995 75.0095 40.9413 74.8942 40.826C74.7809 40.7108 74.6061 40.6532 74.3698 40.6532H73.6638V41.9335ZM78.8288 43.0878C78.8288 42.9218 78.7702 42.7948 78.653 42.7069C78.5358 42.6171 78.3249 42.5233 78.0202 42.4257C77.7155 42.326 77.4743 42.2284 77.2966 42.1327C76.8122 41.871 76.57 41.5184 76.57 41.0751C76.57 40.8446 76.6345 40.6395 76.7634 40.4598C76.8942 40.2782 77.0807 40.1366 77.3229 40.035C77.5671 39.9335 77.8405 39.8827 78.1432 39.8827C78.4479 39.8827 78.7194 39.9384 78.9577 40.0497C79.196 40.1591 79.3806 40.3143 79.5114 40.5155C79.6442 40.7167 79.7106 40.9452 79.7106 41.201H78.8317C78.8317 41.0057 78.7702 40.8544 78.6472 40.7469C78.5241 40.6376 78.3513 40.5829 78.1286 40.5829C77.9138 40.5829 77.7468 40.6288 77.6276 40.7206C77.5085 40.8104 77.4489 40.9296 77.4489 41.078C77.4489 41.2167 77.5182 41.3329 77.6569 41.4266C77.7975 41.5204 78.0036 41.6083 78.2751 41.6903C78.7751 41.8407 79.1393 42.0272 79.3679 42.2499C79.5964 42.4725 79.7106 42.7499 79.7106 43.0819C79.7106 43.451 79.571 43.7411 79.2917 43.952C79.0124 44.161 78.6364 44.2655 78.1638 44.2655C77.8356 44.2655 77.5368 44.2059 77.2673 44.0868C76.9977 43.9657 76.7917 43.8007 76.6491 43.5917C76.5085 43.3827 76.4382 43.1405 76.4382 42.8651H77.32C77.32 43.3358 77.6013 43.5712 78.1638 43.5712C78.3727 43.5712 78.5358 43.5292 78.653 43.4452C78.7702 43.3593 78.8288 43.2401 78.8288 43.0878Z" fill="#2196F3"/>
</svg>

<svg width="106" height="60" fill="none" xmlns="http://www.w3.org/2000/svg"><path d="M24.146 21.103h-.003c-2.398 0-4.342 1.727-4.342 3.858v.003c0 2.131 1.944 3.859 4.342 3.859h.003c2.398 0 4.342-1.728 4.342-3.859v-.002c0-2.132-1.944-3.86-4.342-3.86ZM56.195 19.87c-.007-2.96-1.333-5.798-3.688-7.891C50.153 9.886 46.96 8.707 43.63 8.7c-3.332.005-6.526 1.184-8.882 3.277-2.356 2.094-3.682 4.931-3.69 7.892v16.323s25.134-2.488 25.137-16.32v-.003ZM11 41.55c.006 2.06.93 4.033 2.568 5.49 1.638 1.456 3.859 2.277 6.176 2.283 2.317-.006 4.537-.827 6.176-2.283 1.638-1.456 2.562-3.429 2.568-5.488V30.194S11 31.927 11 41.55Zm8.744 2.034c-.453 0-.895-.119-1.272-.343a2.107 2.107 0 0 1-.843-.913 1.825 1.825 0 0 1-.13-1.175c.088-.395.306-.758.626-1.042.32-.285.728-.479 1.172-.557a2.558 2.558 0 0 1 1.323.115c.419.154.776.415 1.028.75s.386.728.386 1.13c.001.268-.057.534-.172.782a2.036 2.036 0 0 1-.496.662c-.212.19-.465.34-.744.443a2.539 2.539 0 0 1-.878.156v-.008ZM37.418 42.464H35.73v1.743h-.879V39.94h2.778v.712H35.73v1.102h1.688v.709Zm4.224-.293c0 .42-.074.788-.222 1.104-.149.317-.362.56-.64.733a1.755 1.755 0 0 1-.948.258c-.354 0-.67-.085-.947-.255a1.695 1.695 0 0 1-.644-.727 2.511 2.511 0 0 1-.231-1.09v-.21c0-.42.075-.79.225-1.108.152-.32.366-.566.642-.735.277-.172.593-.258.949-.258.355 0 .67.086.946.258.278.17.491.415.642.735.152.318.228.686.228 1.104v.19Zm-.89-.194c0-.447-.08-.787-.24-1.02a.783.783 0 0 0-.686-.348.782.782 0 0 0-.683.346c-.16.229-.241.564-.243 1.008v.208c0 .435.08.773.24 1.013.16.24.39.36.692.36a.775.775 0 0 0 .68-.345c.158-.232.238-.57.24-1.014v-.208Zm3.74 1.11a.447.447 0 0 0-.175-.38c-.117-.09-.328-.184-.633-.281a4.575 4.575 0 0 1-.723-.293c-.485-.262-.727-.615-.727-1.058 0-.23.064-.436.193-.615.131-.182.318-.323.56-.425.244-.101.518-.152.82-.152.305 0 .576.055.815.167.238.11.423.264.553.466.133.2.2.43.2.685h-.88c0-.195-.06-.347-.184-.454-.123-.11-.296-.164-.518-.164-.215 0-.382.046-.501.138a.426.426 0 0 0-.179.357c0 .139.07.255.208.349.14.093.347.181.618.263.5.15.864.337 1.093.56.228.222.343.5.343.832 0 .369-.14.66-.42.87-.279.209-.654.314-1.127.314-.328 0-.627-.06-.897-.18a1.438 1.438 0 0 1-.618-.494 1.27 1.27 0 0 1-.21-.727h.881c0 .47.281.706.844.706.209 0 .372-.042.49-.126a.418.418 0 0 0 .175-.357Zm4.691-2.434h-1.306v3.554h-.88v-3.554H45.71v-.712h3.474v.712Zm3.07 1.705h-1.687v1.143h1.98v.706h-2.859V39.94h2.854v.712h-1.975v1.017h1.688v.688Zm2.388.287h-.7v1.562h-.879V39.94h1.585c.504 0 .893.113 1.166.337.274.225.41.542.41.952 0 .291-.063.535-.19.73a1.282 1.282 0 0 1-.571.463l.922 1.743v.04h-.943l-.8-1.56Zm-.7-.712h.71c.22 0 .39-.055.512-.166a.607.607 0 0 0 .181-.466c0-.202-.057-.36-.172-.475-.114-.115-.288-.173-.525-.173h-.706v1.28Zm5.326.771v1.503h-.879V39.94h1.664c.32 0 .602.059.844.176.244.117.432.284.563.501.13.215.196.46.196.735 0 .418-.144.748-.43.99-.286.24-.681.361-1.187.361h-.77Zm0-.712h.785c.233 0 .41-.055.53-.164.124-.11.185-.266.185-.469a.704.704 0 0 0-.184-.507c-.123-.128-.293-.195-.51-.199h-.806v1.34Zm5.56.366H63.14v1.143h1.98v.706h-2.859V39.94h2.854v.712H63.14v1.017h1.688v.688Zm4.079-1.705h-1.307v3.554h-.879v-3.554h-1.289v-.712h3.475v.712Zm3.07 1.705H70.29v1.143h1.98v.706h-2.86V39.94h2.854v.712H70.29v1.017h1.687v.688Zm2.388.287h-.7v1.562h-.88V39.94h1.586c.504 0 .892.113 1.166.337.273.225.41.542.41.952 0 .291-.064.535-.19.73a1.283 1.283 0 0 1-.572.463l.923 1.743v.04h-.943l-.8-1.56Zm-.7-.712h.709c.22 0 .391-.055.512-.166a.607.607 0 0 0 .182-.466c0-.202-.057-.36-.173-.475-.113-.115-.288-.173-.524-.173h-.706v1.28Zm5.165 1.155a.447.447 0 0 0-.176-.381c-.117-.09-.328-.184-.633-.281a4.57 4.57 0 0 1-.723-.293c-.485-.262-.727-.615-.727-1.058 0-.23.065-.436.193-.615.131-.182.318-.323.56-.425.244-.101.518-.152.82-.152.305 0 .576.055.815.167.238.11.423.264.553.466.133.2.2.43.2.685h-.88c0-.195-.06-.347-.184-.454-.123-.11-.296-.164-.518-.164-.215 0-.382.046-.501.138a.426.426 0 0 0-.18.357c0 .139.07.255.209.349.14.093.347.181.618.263.5.15.864.337 1.093.56.228.222.343.5.343.832 0 .369-.14.66-.42.87-.279.209-.655.314-1.127.314-.328 0-.627-.06-.897-.18a1.438 1.438 0 0 1-.618-.494 1.27 1.27 0 0 1-.21-.727h.881c0 .47.281.706.844.706.209 0 .372-.042.489-.126a.418.418 0 0 0 .176-.357Z" fill="#2196F3"/></svg>
